src/icons/account.svg

<svg width="22" height="23" viewBox="0 0 22 23" fill="none" xmlns="http://www.w3.org/2000/svg">
<path d="M10.8667 22.3145C4.95654 22.3145 0.059082 17.417 0.059082 11.5068C0.059082 5.58838 4.94824 0.690918 10.8584 0.690918C16.7769 0.690918 21.6826 5.58838 21.6826 11.5068C21.6826 17.417 16.7852 22.3145 10.8667 22.3145ZM10.8667 20.7705C16.0049 20.7705 20.1304 16.6367 20.1304 11.5068C20.1304 6.36865 15.9966 2.24316 10.8584 2.24316C5.72852 2.24316 1.61133 6.36865 1.61133 11.5068C1.61133 16.6367 5.73682 20.7705 10.8667 20.7705ZM10.8584 11.208C9.33936 11.1997 8.11914 9.92969 8.11914 8.21973C8.11914 6.60938 9.33936 5.28125 10.8584 5.28125C12.3774 5.28125 13.5977 6.60938 13.5977 8.21973C13.5977 9.92969 12.3774 11.2163 10.8584 11.208ZM5.91113 16.9604C5.5293 16.9604 5.35498 16.7114 5.35498 16.3462C5.35498 15.1758 7.11475 12.0796 10.8584 12.0796C14.6104 12.0796 16.3701 15.1758 16.3701 16.3462C16.3701 16.7114 16.1875 16.9604 15.8057 16.9604H5.91113Z"/>
</svg>

<svg width="22" height="23"><path d="M10.867 22.314c-5.91 0-10.808-4.897-10.808-10.807C.06 5.588 4.95.69 10.86.69c5.918 0 10.824 4.897 10.824 10.816 0 5.91-4.898 10.807-10.816 10.807Zm0-1.544a9.24 9.24 0 0 0 9.263-9.263 9.243 9.243 0 0 0-9.272-9.264 9.227 9.227 0 0 0-9.247 9.264 9.24 9.24 0 0 0 9.256 9.263Zm-.009-9.562C9.34 11.2 8.12 9.93 8.12 8.22c0-1.61 1.22-2.939 2.74-2.939 1.518 0 2.739 1.328 2.739 2.939 0 1.71-1.22 2.996-2.74 2.988ZM5.911 16.96c-.382 0-.556-.249-.556-.614 0-1.17 1.76-4.266 5.503-4.266 3.752 0 5.512 3.096 5.512 4.266 0 .365-.183.614-.564.614H5.91Z"/></svg>
